public/style/workarea/images/icons/exe-image-compact-icon-green.svg

<svg fill="none" height="24" viewBox="0 0 24 24" width="24" xmlns="http://www.w3.org/2000/svg"><path d="m16.2 21h-9.26863c-.60582 0-.90872 0-1.04899-.1198-.1217-.1039-.18629-.2599-.17373-.4194.01447-.1839.22866-.3981.65704-.8265l8.50291-8.5029c.396-.396.5941-.5941.8224-.6682.2008-.0653.4172-.0653.618 0 .2283.0741.4264.2722.8224.6682l3.8686 3.8686v1.2m-4.8 4.8c1.6802 0 2.5202 0 3.162-.327.5645-.2876 1.0234-.7465 1.311-1.311.327-.6418.327-1.4818.327-3.162m-4.8 4.8h-8.4c-1.68016 0-2.52024 0-3.16197-.327-.56449-.2876-1.02343-.7465-1.31105-1.311-.32698-.6418-.32698-1.4818-.32698-3.162v-8.4c0-1.68016 0-2.52024.32698-3.16197.28762-.56449.74656-1.02343 1.31105-1.31105.64173-.32698 1.48181-.32698 3.16197-.32698h8.4c1.6802 0 2.5202 0 3.162.32698.5645.28762 1.0234.74656 1.311 1.31105.327.64173.327 1.48181.327 3.16197v8.4m-10.5-7.7c0 1.10457-.89543 2-2 2s-2-.89543-2-2 .89543-2 2-2 2 .89543 2 2z" stroke="#0ba1a1" stroke-linecap="round" stroke-linejoin="round" stroke-width="2"/></svg>

<svg width="24" height="24" viewBox="0 0 24 24" fill="none" xmlns="http://www.w3.org/2000/svg">
<path d="M16.2 21H6.93137C6.32555 21 6.02265 21 5.88238 20.8802C5.76068 20.7763 5.69609 20.6203 5.70865 20.4608C5.72312 20.2769 5.93731 20.0627 6.36569 19.6343L14.8686 11.1314C15.2646 10.7354 15.4627 10.5373 15.691 10.4632C15.8918 10.3979 16.1082 10.3979 16.309 10.4632C16.5373 10.5373 16.7354 10.7354 17.1314 11.1314L21 15V16.2M16.2 21C17.8802 21 18.7202 21 19.362 20.673C19.9265 20.3854 20.3854 19.9265 20.673 19.362C21 18.7202 21 17.8802 21 16.2M16.2 21H7.8C6.11984 21 5.27976 21 4.63803 20.673C4.07354 20.3854 3.6146 19.9265 3.32698 19.362C3 18.7202 3 17.8802 3 16.2V7.8C3 6.11984 3 5.27976 3.32698 4.63803C3.6146 4.07354 4.07354 3.6146 4.63803 3.32698C5.27976 3 6.11984 3 7.8 3H16.2C17.8802 3 18.7202 3 19.362 3.32698C19.9265 3.6146 20.3854 4.07354 20.673 4.63803C21 5.27976 21 6.11984 21 7.8V16.2M10.5 8.5C10.5 9.60457 9.60457 10.5 8.5 10.5C7.39543 10.5 6.5 9.60457 6.5 8.5C6.5 7.39543 7.39543 6.5 8.5 6.5C9.60457 6.5 10.5 7.39543 10.5 8.5Z" stroke="#0BA1A1" stroke-width="2" stroke-linecap="round" stroke-linejoin="round"/>
</svg>
